src/img/logos/yms.svg

<svg fill="none" height="55" viewBox="0 0 127 55" width="127" xmlns="http://www.w3.org/2000/svg" xmlns:xlink="http://www.w3.org/1999/xlink"><clipPath id="a"><path d="m0 0h127v55h-127z"/></clipPath><g clip-path="url(#a)"><path d="m118.13 14.88c-1.197-1.4275-2.715-2.5514-4.43-3.28-1.659-.771-3.461-1.1833-5.29-1.21-.891-.0001-1.781.0735-2.66.22-.859.1174-1.69.392-2.45.81-.707.4109-1.323.9622-1.81 1.62-.512.7451-.769 1.6365-.73 2.54-.031.7779.171 1.5475.58 2.21.436.6406 1.014 1.1712 1.69 1.55.845.4885 1.736.8938 2.66 1.21 1 .37 2.19.75 3.47 1.15 1.86.58 3.78 1.24 5.79 2 1.948.6797 3.79 1.6325 5.47 2.83 1.642 1.1729 3.032 2.662 4.09 4.38 1.14 1.9789 1.701 4.2379 1.62 6.52.069 2.6926-.526 5.3608-1.73 7.77-1.119 2.139-2.717 3.9904-4.67 5.41-2.023 1.4604-4.297 2.535-6.71 3.17-2.54.6804-5.16 1.0168-7.79 1-3.867-.0082-7.7035-.6848-11.34-2-3.4082-1.1555-6.5166-3.0547-9.1-5.56l8.64-8.39c1.466 1.6645 3.2647 3.0034 5.28 3.93 2.039 1.055 4.295 1.6231 6.59 1.66.958.0023 1.913-.0983 2.85-.3.866-.177 1.69-.5163 2.43-1 .696-.4339 1.267-1.0402 1.66-1.76.43-.8156.644-1.7282.62-2.65.025-.8984-.246-1.78-.77-2.51-.606-.759-1.353-1.394-2.2-1.87-1.124-.6441-2.314-1.1638-3.55-1.55-1.413-.4734-3.02-.9767-4.82-1.51-1.7738-.5168-3.5166-1.1345-5.22-1.85-1.6259-.7136-3.1333-1.6713-4.47-2.84-1.3283-1.1703-2.4036-2.5994-3.16-4.2-.8506-1.8829-1.2609-3.9348-1.2-6-.0741-2.6024.5657-5.1754 1.85-7.44 1.2187-2.03621 2.8797-3.77237 4.86-5.08001 2.0804-1.35096 4.377-2.33519 6.79-2.909978 2.498-.609131 5.059-.9180254 7.63-.9200437 3.217.0216063 6.409.5688127 9.45 1.6199917 3.107 1.01945 5.98 2.64786 8.45 4.79004z" fill="#ed2079"/><path d="m96.46 2.87v26.28l-2.16-.85-.08-24.47z" fill="#be1e2d"/><path d="m96.3001 41.49v12.0999l-2.15-.63s-2.66-15.3299-.11-13.2299c.7204.6277 1.4749 1.2153 2.26 1.76z" fill="#be1e2d"/><path d="m82.9701 54.79.2299-31.45v-1.06l-12.93 32.51h-8.35l-12.62-32.51v2.42l.21 30.09h-11.21v-54.610007h13.63l14.5101 35.000007h.28l12.3699-35.000007h15.5601v54.610007z" fill="#e6463b"/><path d="m32.13 31.65v23.14h-11.38v-23.14l-20.75-31.470007h14.3l12 20.240007 12-20.210039h13.61z" fill="#f79420"/><path d="m51.9401.179993-13.63 21.650007v3.91l14.65-23.09001z" fill="#be1e2d"/></g></svg>

<svg width="127" height="55" viewBox="0 0 127 55" fill="none" xmlns="http://www.w3.org/2000/svg">
<g clip-path="url(#clip0_13_308)">
<path d="M118.13 14.88C116.933 13.4525 115.415 12.3286 113.7 11.6C112.041 10.829 110.239 10.4167 108.41 10.39C107.519 10.3899 106.629 10.4635 105.75 10.61C104.891 10.7274 104.06 11.002 103.3 11.42C102.593 11.8309 101.977 12.3822 101.49 13.04C100.978 13.7851 100.721 14.6765 100.76 15.58C100.729 16.3579 100.931 17.1275 101.34 17.79C101.776 18.4306 102.354 18.9612 103.03 19.34C103.875 19.8285 104.766 20.2338 105.69 20.55C106.69 20.92 107.88 21.3 109.16 21.7C111.02 22.28 112.94 22.94 114.95 23.7C116.898 24.3797 118.74 25.3325 120.42 26.53C122.062 27.7029 123.452 29.192 124.51 30.91C125.65 32.8889 126.211 35.1479 126.13 37.43C126.199 40.1226 125.604 42.7908 124.4 45.2C123.281 47.339 121.683 49.1904 119.73 50.61C117.707 52.0704 115.433 53.145 113.02 53.78C110.48 54.4604 107.86 54.7968 105.23 54.78C101.363 54.7718 97.5265 54.0952 93.89 52.78C90.4818 51.6245 87.3734 49.7253 84.79 47.22L93.43 38.83C94.896 40.4945 96.6947 41.8334 98.71 42.76C100.749 43.815 103.005 44.3831 105.3 44.42C106.258 44.4223 107.213 44.3217 108.15 44.12C109.016 43.943 109.84 43.6037 110.58 43.12C111.276 42.6861 111.847 42.0798 112.24 41.36C112.67 40.5444 112.884 39.6318 112.86 38.71C112.885 37.8116 112.614 36.93 112.09 36.2C111.484 35.441 110.737 34.806 109.89 34.33C108.766 33.6859 107.576 33.1662 106.34 32.78C104.927 32.3066 103.32 31.8033 101.52 31.27C99.7462 30.7532 98.0034 30.1355 96.3 29.42C94.6741 28.7064 93.1667 27.7487 91.83 26.58C90.5017 25.4097 89.4264 23.9806 88.67 22.38C87.8194 20.4971 87.4091 18.4452 87.47 16.38C87.3959 13.7776 88.0357 11.2046 89.32 8.94C90.5387 6.90379 92.1997 5.16763 94.18 3.85999C96.2604 2.50903 98.557 1.5248 100.97 0.950012C103.468 0.340881 106.029 0.0319866 108.6 0.0299683C111.817 0.0515746 115.009 0.598781 118.05 1.64996C121.157 2.66941 124.03 4.29782 126.5 6.44L118.13 14.88Z" fill="#ED2079"/>
<path d="M96.46 2.87V29.15L94.3 28.3L94.22 3.83L96.46 2.87Z" fill="#BE1E2D"/>
<path d="M96.3001 41.49V53.5899L94.1501 52.9599C94.1501 52.9599 91.4901 37.63 94.0401 39.73C94.7605 40.3577 95.515 40.9453 96.3001 41.49Z" fill="#BE1E2D"/>
<path d="M82.9701 54.79L83.2 23.34V22.28L70.27 54.79H61.92L49.3 22.28V24.7L49.51 54.79H38.3V0.179993H51.93L66.4401 35.18H66.7201L79.09 0.179993H94.6501V54.79H82.9701Z" fill="#E6463B"/>
<path d="M32.13 31.65V54.79H20.75V31.65L0 0.179993H14.3L26.3 20.42L38.3 0.209961H51.91L32.13 31.65Z" fill="#F79420"/>
<path d="M51.9401 0.179993L38.3101 21.83V25.74L52.9601 2.64999L51.9401 0.179993Z" fill="#BE1E2D"/>
</g>
<defs>
<clipPath id="clip0_13_308">
<rect width="127" height="55" fill="white"/>
</clipPath>
</defs>
</svg>
